static/assets/images/networks/0g.svg

<svg width="256" height="256" viewBox="0 0 256 256" fill="none" xmlns="http://www.w3.org/2000/svg">
<path d="M128 256C198.692 256 256 198.692 256 128C256 57.3077 198.692 0 128 0C57.3077 0 0 57.3077 0 128C0 198.692 57.3077 256 128 256Z" fill="white"/>
<path fill-rule="evenodd" clip-rule="evenodd" d="M37.7539 158.157C21.9419 139.356 23.0433 111.569 41.0534 94.0171C60.24 75.3275 91.3424 75.3275 110.529 94.0171C129.711 112.711 129.711 143.014 110.529 161.708C91.9259 179.834 62.1157 180.38 42.8359 163.359L86.2117 121.093L91.4219 126.169L64.9376 151.978C74.8315 156.205 86.7957 154.37 94.8939 146.479C105.447 136.197 105.447 119.529 94.8939 109.251C84.3451 98.9685 67.2373 98.9685 56.6843 109.251C47.3207 118.373 46.2681 132.53 53.5259 142.786L37.7539 158.157ZM168.169 137.386V130.228H229.333C228.09 154.796 207.785 174.477 182.525 175.519C153.612 176.717 129.844 153.188 131.516 125.04C133.002 99.9899 155.01 80.1195 180.411 80.1195C205.812 80.1195 226.693 98.9552 229.152 123.07H206.905C204.604 110.853 193.618 101.597 180.411 101.597C163.777 101.597 150.662 116.287 153.993 133.085C156.054 143.467 164.444 151.615 175.108 153.598C188.735 156.127 201 148.646 205.516 137.386H168.169Z" fill="url(#paint0_linear_10883_700)"/>
<defs>
<linearGradient id="paint0_linear_10883_700" x1="183.59" y1="74.7836" x2="88.9754" y2="169.156" gradientUnits="userSpaceOnUse">
<stop stop-color="#FAEA53"/>
<stop offset="0.12" stop-color="#FFAF90"/>
<stop offset="0.25" stop-color="#FE7981"/>
<stop offset="0.56" stop-color="#BC50FF"/>
<stop offset="1" stop-color="#53B7FF"/>
</linearGradient>
</defs>
</svg>

<svg xmlns="http://www.w3.org/2000/svg" fill="none" viewBox="0 0 256 256"><path fill="#fff" d="M128 256c70.692 0 128-57.308 128-128S198.692 0 128 0 0 57.308 0 128s57.308 128 128 128"/><path fill="url(#paint0_linear_10883_700)" fill-rule="evenodd" d="M37.754 158.157c-15.812-18.801-14.71-46.588 3.3-64.14 19.186-18.69 50.288-18.69 69.475 0 19.182 18.694 19.182 48.997 0 67.691-18.603 18.126-48.413 18.672-67.693 1.651l43.376-42.266 5.21 5.076-26.484 25.809c9.894 4.227 21.858 2.392 29.956-5.499 10.553-10.282 10.553-26.95 0-37.228-10.549-10.282-27.657-10.282-38.21 0-9.363 9.122-10.416 23.279-3.158 33.535zm130.415-20.771v-7.158h61.164c-1.243 24.568-21.548 44.249-46.808 45.291-28.913 1.198-52.681-22.331-51.009-50.479 1.486-25.05 23.494-44.92 48.895-44.92s46.282 18.835 48.741 42.95h-22.247c-2.301-12.217-13.287-21.473-26.494-21.473-16.634 0-29.749 14.69-26.418 31.488 2.061 10.382 10.451 18.53 21.115 20.513 13.627 2.529 25.892-4.952 30.408-16.212z" clip-rule="evenodd"/><defs><linearGradient id="paint0_linear_10883_700" x1="183.59" x2="88.975" y1="74.784" y2="169.156" gradientUnits="userSpaceOnUse"><stop stop-color="#FAEA53"/><stop offset=".12" stop-color="#FFAF90"/><stop offset=".25" stop-color="#FE7981"/><stop offset=".56" stop-color="#BC50FF"/><stop offset="1" stop-color="#53B7FF"/></linearGradient></defs></svg>
